symbols/web/margin/materialsymbolsrounded/margin_wght500grad200fill1_40px.svg

<svg xmlns="http://www.w3.org/2000/svg" height="40" width="40"><path d="M7.75 35.958q-1.583 0-2.646-1.062-1.062-1.063-1.062-2.646V7.75q0-1.583 1.062-2.646Q6.167 4.042 7.75 4.042h24.5q1.583 0 2.646 1.062 1.062 1.063 1.062 2.646v24.5q0 1.583-1.062 2.646-1.063 1.062-2.646 1.062Zm5.333-21q.834 0 1.355-.52.52-.521.52-1.355 0-.833-.52-1.354-.521-.521-1.355-.521-.833 0-1.354.521-.521.521-.521 1.354 0 .834.521 1.355.521.52 1.354.52Zm6.917 0q.833 0 1.375-.52.542-.521.542-1.355 0-.833-.542-1.354-.542-.521-1.333-.521-.834 0-1.354.542-.521.542-.521 1.333 0 .792.521 1.334.52.541 1.312.541Zm6.958 0q.792 0 1.334-.52.541-.521.541-1.355 0-.833-.541-1.354-.542-.521-1.334-.521-.833 0-1.354.521-.521.521-.521 1.354 0 .834.521 1.355.521.52 1.354.52Zm0 6.875q.792 0 1.334-.521.541-.52.541-1.312 0-.833-.541-1.375-.542-.542-1.334-.542-.833 0-1.354.542-.521.542-.521 1.333 0 .834.521 1.354.521.521 1.354.521Zm-6.958 0q.833 0 1.375-.521.542-.52.542-1.312 0-.833-.542-1.375t-1.333-.542q-.834 0-1.354.542-.521.542-.521 1.333 0 .834.521 1.354.52.521 1.312.521Zm-6.917 0q.834 0 1.355-.521.52-.52.52-1.312 0-.833-.52-1.375-.521-.542-1.355-.542-.833 0-1.354.542-.521.542-.521 1.333 0 .834.521 1.354.521.521 1.354.521Z"/></svg>

<svg xmlns="http://www.w3.org/2000/svg" height="40" width="40"><path d="M7.75 35.958Q6.167 35.958 5.104 34.896Q4.042 33.833 4.042 32.25V7.75Q4.042 6.167 5.104 5.104Q6.167 4.042 7.75 4.042H32.25Q33.833 4.042 34.896 5.104Q35.958 6.167 35.958 7.75V32.25Q35.958 33.833 34.896 34.896Q33.833 35.958 32.25 35.958ZM13.083 14.958Q13.917 14.958 14.438 14.438Q14.958 13.917 14.958 13.083Q14.958 12.25 14.438 11.729Q13.917 11.208 13.083 11.208Q12.25 11.208 11.729 11.729Q11.208 12.25 11.208 13.083Q11.208 13.917 11.729 14.438Q12.25 14.958 13.083 14.958ZM20 14.958Q20.833 14.958 21.375 14.438Q21.917 13.917 21.917 13.083Q21.917 12.25 21.375 11.729Q20.833 11.208 20.042 11.208Q19.208 11.208 18.688 11.75Q18.167 12.292 18.167 13.083Q18.167 13.875 18.688 14.417Q19.208 14.958 20 14.958ZM26.958 14.958Q27.75 14.958 28.292 14.438Q28.833 13.917 28.833 13.083Q28.833 12.25 28.292 11.729Q27.75 11.208 26.958 11.208Q26.125 11.208 25.604 11.729Q25.083 12.25 25.083 13.083Q25.083 13.917 25.604 14.438Q26.125 14.958 26.958 14.958ZM26.958 21.833Q27.75 21.833 28.292 21.312Q28.833 20.792 28.833 20Q28.833 19.167 28.292 18.625Q27.75 18.083 26.958 18.083Q26.125 18.083 25.604 18.625Q25.083 19.167 25.083 19.958Q25.083 20.792 25.604 21.312Q26.125 21.833 26.958 21.833ZM20 21.833Q20.833 21.833 21.375 21.312Q21.917 20.792 21.917 20Q21.917 19.167 21.375 18.625Q20.833 18.083 20.042 18.083Q19.208 18.083 18.688 18.625Q18.167 19.167 18.167 19.958Q18.167 20.792 18.688 21.312Q19.208 21.833 20 21.833ZM13.083 21.833Q13.917 21.833 14.438 21.312Q14.958 20.792 14.958 20Q14.958 19.167 14.438 18.625Q13.917 18.083 13.083 18.083Q12.25 18.083 11.729 18.625Q11.208 19.167 11.208 19.958Q11.208 20.792 11.729 21.312Q12.25 21.833 13.083 21.833Z"/></svg>
